src/img/svg/icon-linkedin.svg

<svg width="52" height="52" fill="none" xmlns="http://www.w3.org/2000/svg"><path d="M38 38v-8.79c0-4.32-.93-7.62-5.97-7.62-2.43 0-4.05 1.32-4.71 2.58h-.06v-2.19h-4.77V38h4.98v-7.95c0-2.1.39-4.11 2.97-4.11 2.55 0 2.58 2.37 2.58 4.23v7.8H38V38zM14.39 21.98h4.98V38h-4.98V21.98zM16.88 14A2.88 2.88 0 0014 16.88c0 1.59 1.29 2.91 2.88 2.91 1.59 0 2.88-1.32 2.88-2.91A2.88 2.88 0 0016.88 14z" fill="#fff"/></svg>

<svg width="52" height="52" viewBox="0 0 52 52" fill="none" xmlns="http://www.w3.org/2000/svg">
<path d="M38 38V29.21C38 24.89 37.07 21.59 32.03 21.59C29.6 21.59 27.98 22.91 27.32 24.17H27.26V21.98H22.49V38H27.47V30.05C27.47 27.95 27.86 25.94 30.44 25.94C32.99 25.94 33.02 28.31 33.02 30.17V37.97H38V38Z" fill="white"/>
<path d="M14.39 21.98H19.37V38H14.39V21.98Z" fill="white"/>
<path d="M16.88 14C15.29 14 14 15.29 14 16.88C14 18.47 15.29 19.79 16.88 19.79C18.47 19.79 19.76 18.47 19.76 16.88C19.76 15.29 18.47 14 16.88 14Z" fill="white"/>
</svg>
